packages/gestalt/src/icons/search.svg

<svg width="24" height="24" xmlns="http://www.w3.org/2000/svg"><path fill="#B5B5B5" d="M10 16c-3.31 0-6-2.69-6-6s2.69-6 6-6 6 2.69 6 6-2.69 6-6 6m13.12 2.88l-4.26-4.26A9.842 9.842 0 0 0 20 10c0-5.52-4.48-10-10-10S0 4.48 0 10s4.48 10 10 10c1.67 0 3.24-.41 4.62-1.14l4.26 4.26a3 3 0 0 0 4.24 0 3 3 0 0 0 0-4.24"/></svg>

<svg width="24" height="24" viewBox="0 0 24 24" xmlns="http://www.w3.org/2000/svg"><path fill="#aeaeae" d="M10.00,16.00 C6.69,16.00 4.00,13.31 4.00,10.00 C4.00,6.69 6.69,4.00 10.00,4.00 C13.31,4.00 16.00,6.69 16.00,10.00 C16.00,13.31 13.31,16.00 10.00,16.00 M23.12,18.88 L18.86,14.62 C19.59,13.24 20.00,11.67 20.00,10.00 C20.00,4.48 15.52,0.00 10.00,0.00 C4.48,0.00 0.00,4.48 0.00,10.00 C0.00,15.52 4.48,20.00 10.00,20.00 C11.67,20.00 13.24,19.59 14.62,18.86 L18.88,23.12 C20.05,24.29 21.95,24.29 23.12,23.12 C24.29,21.95 24.29,20.05 23.12,18.88"/></svg>
